X:1
T: I winna gae to bed until I'm married
C:
R:Reel
Q: 232
K:D
M:4/4
L:1/8
|:g|f1/2g1/2a AB AB dF|ED EF B3g|f1/2g1/2a AB AB dF|ED EF A3g|
f1/2g1/2a AB AB dF|ED EF B3g|f1/2g1/2a AB AB dF|ED EF A3e|
f2 fd g2 ge|f2 fd B2 de|f2 fd g2 ge|f1/2g1/2a ef d3e|
f2 fd g2 ge|f2 fd B2 de|ff fd gg ge|f1/2g1/2a ef d3:|
